svgs/light/hotdog.svg

<svg xmlns="http://www.w3.org/2000/svg" viewBox="0 0 512 512"><!-- Font Awesome Pro 6.0.0-alpha2 by @fontawesome - https://fontawesome.com License - https://fontawesome.com/license (Commercial License) --><path d="M438.625 96C444.875 102.25 444.875 112.375 438.625 118.625C419 138.25 401.125 141.25 386.75 143.75C373.75 146 364.375 147.625 352 160S338 181.75 335.75 194.75C333.25 209.125 330.25 227 310.625 246.625S273.125 269.25 258.75 271.75C245.75 274 236.375 275.625 224 288S210 309.75 207.75 322.75C205.25 337.125 202.25 355 182.625 374.625S145.125 397.25 130.75 399.75C117.75 402 108.375 403.625 96 416C92.875 419.125 88.75 420.75 84.75 420.75C80.625 420.75 76.5 419.125 73.375 416C67.125 409.75 67.125 399.625 73.375 393.375C93 373.75 110.875 370.75 125.25 368.25C138.25 366 147.625 364.375 160 352S174 330.25 176.25 317.25C178.75 302.875 181.75 285 201.375 265.375S238.875 242.75 253.25 240.25C266.25 238 275.625 236.375 288 224S302 202.25 304.25 189.25C306.75 174.875 309.75 157 329.375 137.375S366.875 114.75 381.25 112.25C394.25 110 403.625 108.375 416 96C422.25 89.75 432.375 89.75 438.625 96ZM483.625 165.625L165.625 483.625C147.25 501.875 122.875 512 97 512S46.75 501.875 28.375 483.625C10.125 465.25 0 440.875 0 415S10.125 364.75 28.375 346.375L346.375 28.375C364.75 10.125 389.125 0 415 0S465.25 10.125 483.625 28.375C501.875 46.75 512 71.125 512 97S501.875 147.25 483.625 165.625ZM461 51C435.625 25.625 394.375 25.625 369 51L51 369C25.625 394.375 25.625 435.625 51 461S117.625 486.375 143 461L461 143C486.375 117.625 486.375 76.375 461 51ZM468.287 228.688C462.037 234.938 462.037 245.063 468.287 251.312C482.615 265.641 484.006 287.562 471.381 300.188L300.178 471.391C287.568 484.031 265.631 482.594 251.303 468.297C245.053 462.047 234.928 462.047 228.678 468.297S222.428 484.672 228.678 490.922C242.662 504.906 260.834 511.969 278.584 511.969C294.865 511.969 310.803 506.016 322.803 494.016L494.006 322.812C519.1 297.719 517.725 255.484 490.912 228.687C484.662 222.438 474.537 222.438 468.287 228.688ZM32.381 288C36.475 288 40.568 286.438 43.693 283.312C49.943 277.062 49.943 266.937 43.693 260.688C29.365 246.359 27.975 224.438 40.6 211.812L211.803 40.609C224.428 28 246.365 29.422 260.678 43.703C266.928 49.953 277.053 49.953 283.303 43.703S289.553 27.328 283.303 21.078C256.475 -5.75 214.225 -7.125 189.178 17.984L17.975 189.188C-7.119 214.281 -5.744 256.516 21.068 283.312C24.193 286.438 28.287 288 32.381 288Z"/></svg>

<svg xmlns="http://www.w3.org/2000/svg" viewBox="0 0 512 512"><!--! Font Awesome Pro 6.0.0-alpha3 by @fontawesome - https://fontawesome.com License - https://fontawesome.com/license (Commercial License) --><path d="M438.8 95.84c6.25 6.25 6.25 16.34 0 22.59c-19.62 19.62-37.63 22.82-52 25.32C373.8 146 364.4 147.6 352 160s-14 21.75-16.25 34.75c-2.5 14.38-5.5 32.25-25.12 51.88s-37.5 22.62-51.88 25.12C245.8 274 236.4 275.6 224 288s-14 21.75-16.25 34.75c-2.5 14.38-5.5 32.25-25.12 51.88s-37.5 22.62-51.88 25.12C117.8 402 108.4 403.6 96.01 416c-3.125 3.125-7.25 4.75-11.25 4.75c-4.125 0-8.25-1.625-11.38-4.75c-6.25-6.25-6.25-16.38 0-22.62c19.62-19.62 37.5-22.62 51.88-25.12C138.3 366 147.6 364.4 160 352s14-21.75 16.25-34.75c2.5-14.38 5.5-32.25 25.12-51.88s37.5-22.62 51.88-25.12C266.3 238 275.6 236.4 288 224s14-21.75 16.25-34.75c2.5-14.38 5.5-32.25 25.12-51.88s37.5-22.62 51.88-25.12c13-2.25 22.53-4.039 34.91-16.41C422.4 89.59 432.5 89.59 438.8 95.84zM483.6 165.6l-318 318C147.3 501.9 122.9 512 97.01 512s-50.25-10.12-68.63-28.38c-18.25-18.38-28.38-42.75-28.38-68.63s10.12-50.25 28.38-68.63l318-318C364.8 10.12 389.1 0 415 0s50.25 10.12 68.63 28.38c18.25 18.38 28.38 42.75 28.38 68.63S501.9 147.3 483.6 165.6zM461 51c-25.38-25.38-66.63-25.38-92 0l-318 318c-25.38 25.38-25.38 66.63 0 92s66.63 25.38 92 0l318-318C486.4 117.6 486.4 76.38 461 51zM468.3 228.7c-6.25 6.25-6.25 16.38 0 22.62c14.33 14.33 15.72 36.25 3.094 48.88l-171.2 171.2c-12.61 12.64-34.55 11.2-48.88-3.094c-6.25-6.25-16.38-6.25-22.62 0s-6.25 16.38 0 22.62c13.98 13.98 32.16 21.05 49.91 21.05c16.28 0 32.22-5.953 44.22-17.95l171.2-171.2c25.09-25.09 23.72-67.33-3.094-94.13C484.7 222.4 474.5 222.4 468.3 228.7zM32.39 288c4.094 0 8.188-1.562 11.31-4.688c6.25-6.25 6.25-16.38 0-22.62C29.38 246.4 27.98 224.4 40.61 211.8L211.8 40.61C224.4 28 246.4 29.42 260.7 43.7c6.25 6.25 16.38 6.25 22.62 0s6.25-16.38 0-22.62c-26.83-26.83-69.08-28.2-94.13-3.094L17.98 189.2C-7.109 214.3-5.734 256.5 21.08 283.3C24.2 286.4 28.3 288 32.39 288z"/></svg>
